!!!!SEGMENT: pl-kk--kk-i-356--011-001_porta-costanzo--beata-dei-genetrix-beata-dei-genetrix.krn
!!!cenid: 17xx:1955
!!!COM: Porta, Costanzo
!!!COM-rismID: pe20000261
!!!CDT: ~1528-1601/05/19
!!!CNT: Italian
!!!OPR: Beata Dei Genetrix
!!!OTL: Beata Dei Genetrix
!!!OMV: 001
!!!PDT:
!!!AGN: Sacred
!!!SMS-siglum: PL-Kk
!!!SMS-shelfmark: Kk.I.356
!!!SMS-shelfwork: 011-001 M
!!!SMS-variant:
!!!SMS-altvar:
!!!NIFC-rismSourceID: 1001141440
!!!NIFC-rismChildID: 1001142097
!!!NIFC-islandoraID: pl-kk:5933
!!!URL-pdf-islandora: https://repozytorium.nifc.pl/islandora/object/pl-kk%3A5933/datastream/PDF/view
!!!URL-scan: https://polish.musicsources.pl/pl/lokalizacje/galeria/rekopisy/5972 @EN{Scan on Polish Music Sources Website} @PL{Skany w portalu Dziedzictwo Muzyki Polskiej w otwartym dostępie}
!!!IIIF:
!!!ONB-nifc: UWAGA: tylko partia basu.
!!!AIN: 1 empty
!!!key:
**kern	**text
*Iempty	*
*I"Baſso.	*
*I'B	*
*clefC4	*
*k[]	*
*C:	*
*M2/1	*
*met(C|)	*
=1-	=1-
!LO:TX:t=P:problem=metrum C|	!
00r	.
=2-	=2-
.	.
=3-	=3-
0r	.
=4-	=4-
0D/	Be-
=5-	=5-
1.G/	-a-
2G/	-ta
=6-	=6-
1E/	De-
1D/	-i
=7-	=7-
1.C/	Ge-
2C/	-ni-
=8-	=8-
1G/,<	-trix
2A\	Ma-
*2\right	*
2.c\	.
=9-	=9-
.	.
4B\	.
2A/	ri-
!LO:TX:t=P:problem=kreska pseudotaktowa	!
1G/	-a
=10-	=10-
2r	.
2D/	Cu-
2E/	-jus
1G/	vi-
=11-	=11-
.	.
2F/	-sce-
2E/	-ra
2E/	.
=12-	=12-
1D/	in-
1C/	-ta-
=13-	=13-
!LO:TX:t=P:problem=kreska pseudotaktowa	!
1G/	-cta
2.A/	per-
4G/	.
=14-	=14-
2F#X/	-ma-
2G/	.
1C/	-nent.
=15-	=15-
0r	.
=16-	=16-
1G/	Cu-
2A/	-jus
1c\	vi-
=17-	=17-
.	.
2B\	.
!!LO:LB:g=original
2A\	-sce-
2A\	-ra
=18-	=18-
1G/	in-
1F/	-ta-
=19-	=19-
2A,\	-cta,
1c\	p(er)-
2B\	-ma-
=20-	=20-
1c\	-nent
2.C/	ho-
4C/	-di-
=21-	=21-
2D/	-e
1E/	ge-
2F/	-nu-
=22-	=22-
2G/	-it
2G/	Sal-
2A/	-va-
1F/	-to-
=23-	=23-
.	.
2E/	-rem
2.A/	Sae-
4A/	-cu-
=24-	=24-
1G/	-li
00r	.
=25-	=25-
.	.
=26-	=26-
.	.
0r	.
=27-	=27-
.	.
1r	.
=28-	=28-
2.D/	ho-
4D/	-di-
2E/	-e
1F/	ge-
=29-	=29-
.	.
2G/	-nu-
!LO:TX:t=P:problem=kreska pseudotaktowa	!
1A\	-it
=30-	=30-
0r	.
=31-	=31-
1r	.
2r	.
2.F/	ho-
=32-	=32-
.	.
4F/	-di-
2G/	-e
2.A\	ge-
4B\	-nu-
!!LO:LB:g=original
=33-	=33-
!LO:TX:t=P:problem=kreska pseudotaktowa	!
1c\	-it
2r	.
2d\	Sal-
=34-	=34-
2e\	-va-
1c\	-to-
2B\	rem
=35-	=35-
1.c\	Sae-
2d\	-cu-
=36-	=36-
!LO:TX:t=P:problem=kreska pseudotaktowa	!
1c\	-li
1F/	Sal-
=37-	=37-
1C/	-va-
1G/	-to-
=38-	=38-
1E/	-rem
2.G/	sae-
4G/	-cu-
=39-	=39-
00C/	-li.
=40-	=40-
=-	=-
*-	*-
!!!EED: Leszek Kubiak
!!!EEV: 2021-02-23
!!!ENC: Marcin Jachim
!!!END: 2021-02-06
!!!YEC: Copyright 2022 Narodowy Instytut Fryderyka Chopina (https://polishscores.org)
!!!YEM: License CC-BY-4.0 (https://creativecommons.org/licenses/by/4.0)
